icon-themes/sifr_svg/cmd/lc_bezierconvert.svg

<svg viewBox="0 0 24 24" xmlns="http://www.w3.org/2000/svg"><path d="m3.3847656 2-1.3847656 1.484375 7 5.4492188v4.0664062h6v-4.0292969l7-5.359375-1.5625-1.6113281-6.265625 5h-4.3886719zm7.6152344 7h2v2h-2zm-9 1c.00526 4.362729 2.8382181 8.218528 7 9.527344v2.472656h6v-2.462891c4.165217-1.3099 6.999003-5.170775 7-9.537109h-2c-.0017 3.258399-1.979382 6.19021-5 7.412109v-1.412109h-6v1.410156c-3.0199583-1.221632-4.9975391-4.152469-5-7.410156zm9 8h2v1.949219.050781h-2v-.06055z" fill="#555753"/></svg>

<svg xmlns="http://www.w3.org/2000/svg" viewBox="0 0 24 24">
  <path
     style="fill:#555753"
     d="M 3.3847656,2 2,3.484375 9,8.9335938 V 13 h 6 V 8.9707031 L 22,3.6113281 20.4375,2 14.171875,7 H 9.7832031 Z M 11,9 h 2 v 2 h -2 z m -9,1 c 0.00526,4.362729 2.8382181,8.218528 7,9.527344 V 22 h 6 V 19.537109 C 19.165217,18.227209 21.999003,14.366334 22,10 h -2 c -0.0017,3.258399 -1.979382,6.19021 -5,7.412109 V 16 H 9 v 1.410156 C 5.9800417,16.188524 4.0024609,13.257687 4,10 Z m 9,8 h 2 V 19.949219 20 h -2 v -0.06055 z"
     />
</svg>
